svgs/light/ear.svg

<svg xmlns="http://www.w3.org/2000/svg" viewBox="0 0 384 512"><!-- Font Awesome Pro 6.0.0-alpha2 by @fontawesome - https://fontawesome.com License - https://fontawesome.com/license (Commercial License) --><path d="M192 0C86 0 0 86 0 192V368C0 447.5 64.5 512 144 512S288 447.5 288 368V358.125C345.375 324.875 384 263 384 192C384 86 298 0 192 0ZM271.955 330.438C262.08 336.162 256 346.711 256 358.125V368C256 429.758 205.758 480 144 480S32 429.758 32 368V192C32 103.775 103.775 32 192 32S352 103.775 352 192C352 248.779 321.328 301.826 271.955 330.438ZM280.078 99.094C254.031 74.406 220.219 61.781 185.125 64.188C118.344 67.688 64 128.062 64 198.781V240C64 248.844 71.156 256 80 256H86.062C100.359 256 112 267.625 112 281.938C112 288.844 109.297 295.375 104.406 300.281L66.344 338.344C60.094 344.594 60.094 354.719 66.344 360.969C69.469 364.094 73.562 365.656 77.656 365.656S85.844 364.094 88.969 360.969L127.047 322.906C137.984 311.938 144 297.406 144 281.938C144 253.375 123.234 229.562 96 224.844V198.781C96 144.813 136.734 98.75 186.953 96.125C213.422 94.594 238.531 103.781 258.063 122.313C277.375 140.656 288 165.406 288 192C288 200.844 295.156 208 304 208S320 200.844 320 192C320 156.531 305.828 123.531 280.078 99.094Z"/></svg>

<svg xmlns="http://www.w3.org/2000/svg" viewBox="0 0 384 512"><!--! Font Awesome Pro 6.0.0-alpha3 by @fontawesome - https://fontawesome.com License - https://fontawesome.com/license (Commercial License) --><path d="M192 0C86 0 0 86 0 192v176C0 447.5 64.5 512 144 512s144-64.5 144-144v-9.875C345.4 324.9 384 263 384 192C384 86 298 0 192 0zM271.1 330.4C262.1 336.2 256 346.7 256 358.1V368c0 61.76-50.24 112-112 112S32 429.8 32 368V192c0-88.22 71.78-160 160-160s160 71.78 160 160C352 248.8 321.3 301.8 271.1 330.4zM280.1 99.11c-26.05-24.69-59.87-37.34-94.96-34.94C118.3 67.67 64 128.1 64 198.8V240C64 248.8 71.16 256 80 256h6.062C100.4 256 112 267.6 112 281.9c0 6.906-2.703 13.44-7.594 18.34l-38.06 38.06c-6.25 6.25-6.25 16.38 0 22.62c3.125 3.125 7.219 4.688 11.31 4.688s8.188-1.562 11.31-4.688l38.08-38.06C137.1 311.9 144 297.4 144 281.9c0-28.56-20.77-52.38-48-57.09V198.8c0-53.97 40.73-100 90.95-102.7c26.47-1.531 51.58 7.656 71.11 26.19C277.4 140.7 288 165.4 288 192c0 8.844 7.156 16 16 16S320 200.8 320 192C320 156.5 305.8 123.5 280.1 99.11z"/></svg>
